X: 21116
T: Karabach
R: reel
M: 4/4
K: Edorian
"Em7"f8-|f6g2|"A7"f8-|f6g2|"Em7"f8-|f6g2|"A7"e8-|e6z2|
"Em7"f8-|f6g2|"A7"a8-|a4A4|"C6/9"d8-|d4A4|"Bm7sus4"e8-|e8||
e8-|e4edef|e8-|e4edef|e8-|e4edef|e6d2|c6z2|
f8-|f4fefg|f8-|f4fefa|e8-|e4edef|e4- (3edc (3dcA|B6zA||
Beed e2de|edef edBe|eAdd AeAd|dAeA eAd2|
Beed eff2-|fefg edBe|d2Ae AddA|eeAe eAd2|
Beed e2de|edef edBe|eAdd AeAd|dAeA eAd2-|
defa g2ge|dfed BeeA|d2Ae AddA|eeAe eAd2||

